file/showtime.svg

<svg clip-rule="evenodd" fill-rule="evenodd" stroke-linejoin="round" stroke-miterlimit="1.41421" viewBox="0 0 560 400" xmlns="http://www.w3.org/2000/svg"><path d="m171.08 168.85c0-15.39 5.67-25.11 12.51-26.1-6.75-8.37-18.09-12.78-28.44-12.78-11.34 0-21.51 4.95-28.53 12.69 6.75 1.26 9 6.93 9 15.66h-8.19c0-5.13-1.08-7.74-4.14-7.74-1.35 0-2.43.72-3.06 1.89-.09.18-.18.36-.27.63-.27.72-.36 1.44-.36 2.25 0 10.62 17.46 10.08 17.46 26.46 0 6.39-4.95 12.33-10.44 12.33 7.29 7.92 17.1 12.69 28.53 12.69 11.07 0 21.06-4.68 28.08-12.15-6.48-1.8-12.15-11.07-12.15-25.83zm-3.6 25.29h-8.73v-21.87h-9.45v21.87h-8.91v-50.4h8.82v20.34h9.54v-20.34h8.73zm-50.67-26.55c6.12 5.49 11.79 6.75 11.79 13.32 0 3.06-1.71 5.31-4.23 5.31-4.23-.09-7.65-7.56-7.56-18.63zm63.09.45c0-8.55 2.52-17.01 6.93-17.01 5.31 0 6.75 13.14 6.75 17.28 0 9.09-2.88 17.37-6.75 17.37-4.59-.09-6.93-8.73-6.93-17.64zm89.82 25.47h-8.91v-41.49h-8.19v41.49h-8.91v-41.49h-7.56l-5.4 41.49h-8.1l-4.32-31.05h-.09l-4.41 31.05h-7.83l-6.48-49.05h8.1l3.15 28.8h.09l4.32-28.8h8.1l3.87 28.8h.09l3.51-28.8h38.97zm4.41-49.05h11.97l3.96 25.11h.09l4.23-25.11h11.7v49.05h-8.01v-35.91h-.09l-6.12 35.91h-4.95l-6.03-35.91h-.18v35.91h-6.66zm36.36 0h20.25v7.56h-11.34v12.51h8.28v8.01h-8.28v13.32h11.79v7.56h-20.7z" fill="#dc141e" fill-rule="nonzero" transform="matrix(1.67925 0 0 1.67925 -96.1498 -82.7853)"/></svg>

<?xml version="1.0" encoding="UTF-8" standalone="no"?>
<!DOCTYPE svg PUBLIC "-//W3C//DTD SVG 1.1//EN" "http://www.w3.org/Graphics/SVG/1.1/DTD/svg11.dtd">
<svg width="100%" height="100%" viewBox="0 0 560 400" version="1.1" xmlns="http://www.w3.org/2000/svg" xmlns:xlink="http://www.w3.org/1999/xlink" xml:space="preserve" xmlns:serif="http://www.serif.com/" style="fill-rule:evenodd;clip-rule:evenodd;stroke-linejoin:round;stroke-miterlimit:1.41421;">
    <g transform="matrix(1.67925,0,0,1.67925,-96.1498,-82.7853)">
        <path d="M171.08,168.85C171.08,153.46 176.75,143.74 183.59,142.75C176.84,134.38 165.5,129.97 155.15,129.97C143.81,129.97 133.64,134.92 126.62,142.66C133.37,143.92 135.62,149.59 135.62,158.32L127.43,158.32C127.43,153.19 126.35,150.58 123.29,150.58C121.94,150.58 120.86,151.3 120.23,152.47C120.14,152.65 120.05,152.83 119.96,153.1C119.69,153.82 119.6,154.54 119.6,155.35C119.6,165.97 137.06,165.43 137.06,181.81C137.06,188.2 132.11,194.14 126.62,194.14C133.91,202.06 143.72,206.83 155.15,206.83C166.22,206.83 176.21,202.15 183.23,194.68C176.75,192.88 171.08,183.61 171.08,168.85ZM167.48,194.14L158.75,194.14L158.75,172.27L149.3,172.27L149.3,194.14L140.39,194.14L140.39,143.74L149.21,143.74L149.21,164.08L158.75,164.08L158.75,143.74L167.48,143.74L167.48,194.14ZM116.81,167.59C122.93,173.08 128.6,174.34 128.6,180.91C128.6,183.97 126.89,186.22 124.37,186.22C120.14,186.13 116.72,178.66 116.81,167.59ZM179.9,168.04C179.9,159.49 182.42,151.03 186.83,151.03C192.14,151.03 193.58,164.17 193.58,168.31C193.58,177.4 190.7,185.68 186.83,185.68C182.24,185.59 179.9,176.95 179.9,168.04ZM269.72,193.51L260.81,193.51L260.81,152.02L252.62,152.02L252.62,193.51L243.71,193.51L243.71,152.02L236.15,152.02L230.75,193.51L222.65,193.51L218.33,162.46L218.24,162.46L213.83,193.51L206,193.51L199.52,144.46L207.62,144.46L210.77,173.26L210.86,173.26L215.18,144.46L223.28,144.46L227.15,173.26L227.24,173.26L230.75,144.46L269.72,144.46L269.72,193.51L269.72,193.51ZM274.13,144.46L286.1,144.46L290.06,169.57L290.15,169.57L294.38,144.46L306.08,144.46L306.08,193.51L298.07,193.51L298.07,157.6L297.98,157.6L291.86,193.51L286.91,193.51L280.88,157.6L280.7,157.6L280.7,193.51L274.04,193.51L274.13,144.46ZM310.49,144.46L330.74,144.46L330.74,152.02L319.4,152.02L319.4,164.53L327.68,164.53L327.68,172.54L319.4,172.54L319.4,185.86L331.19,185.86L331.19,193.42L310.49,193.42L310.49,144.46Z" style="fill:rgb(220,20,30);fill-rule:nonzero;"/>
    </g>
</svg>
